symbolic/22x22/panel/input-keyboard-virtual-on.svg

<svg xmlns="http://www.w3.org/2000/svg" width="22" height="22" version="1.1">
 <defs>
  <style id="current-color-scheme" type="text/css">
   .ColorScheme-Text { color:#323a41; } .ColorScheme-Highlight { color:#4285f4; } .ColorScheme-NeutralText { color:#ff9800; } .ColorScheme-PositiveText { color:#4caf50; } .ColorScheme-NegativeText { color:#f44336; }
  </style>
 </defs>
 <path style="fill:currentColor" class="ColorScheme-Text" d="M 5,5 C 3.892,5 3,5.892 3,7 V 15 C 3,16.108 3.892,17 5,17 H 16 C 17.108,17 18,16.108 18,15 V 7 C 18,5.892 17.108,5 16,5 Z M 5.25,7 H 6.75 C 6.8885,7 7,7.1115 7,7.25 V 8.75 C 7,8.8885 6.8885,9 6.75,9 H 5.25 C 5.1115,9 5,8.8885 5,8.75 V 7.25 C 5,7.1115 5.1115,7 5.25,7 Z M 8.25,7 H 9.75 C 9.8885,7 10,7.1115 10,7.25 V 8.75 C 10,8.8885 9.8885,9 9.75,9 H 8.25 C 8.1115,9 8,8.8885 8,8.75 V 7.25 C 8,7.1115 8.1115,7 8.25,7 Z M 11.25,7 H 12.75 C 12.889,7 13,7.1115 13,7.25 V 8.75 C 13,8.8885 12.889,9 12.75,9 H 11.25 C 11.111,9 11,8.8885 11,8.75 V 7.25 C 11,7.1115 11.111,7 11.25,7 Z M 14.25,7 H 15.75 C 15.889,7 16,7.1115 16,7.25 V 8.75 C 16,8.8885 15.889,9 15.75,9 H 14.25 C 14.111,9 14,8.8885 14,8.75 V 7.25 C 14,7.1115 14.111,7 14.25,7 Z M 5.25,10 H 6.75 C 6.8885,10 7,10.111 7,10.25 V 11.75 C 7,11.889 6.8885,12 6.75,12 H 5.25 C 5.1115,12 5,11.889 5,11.75 V 10.25 C 5,10.111 5.1115,10 5.25,10 Z M 8.25,10 H 9.75 C 9.8885,10 10,10.111 10,10.25 V 11.75 C 10,11.889 9.8885,12 9.75,12 H 8.25 C 8.1115,12 8,11.889 8,11.75 V 10.25 C 8,10.111 8.1115,10 8.25,10 Z M 11.25,10 H 12.75 C 12.889,10 13,10.111 13,10.25 V 11.75 C 13,11.889 12.889,12 12.75,12 H 11.25 C 11.111,12 11,11.889 11,11.75 V 10.25 C 11,10.111 11.111,10 11.25,10 Z M 14.25,10 H 15.75 C 15.889,10 16,10.111 16,10.25 V 11.75 C 16,11.889 15.889,12 15.75,12 H 14.25 C 14.111,12 14,11.889 14,11.75 V 10.25 C 14,10.111 14.111,10 14.25,10 Z M 7.25,13 H 13.75 C 13.889,13 14,13.111 14,13.25 V 14.75 C 14,14.889 13.889,15 13.75,15 H 7.25 C 7.1115,15 7,14.889 7,14.75 V 13.25 C 7,13.111 7.1115,13 7.25,13 Z"/>
</svg>

<svg xmlns="http://www.w3.org/2000/svg" width="22" height="22"><defs><style id="current-color-scheme" type="text/css"></style></defs><path style="fill:currentColor;color:#323a41" d="M5 5c-1.108 0-2 .892-2 2v8c0 1.108.892 2 2 2h11c1.108 0 2-.892 2-2V7c0-1.108-.892-2-2-2zm.25 2h1.5a.25.25 0 0 1 .25.25v1.5a.25.25 0 0 1-.25.25h-1.5A.25.25 0 0 1 5 8.75v-1.5A.25.25 0 0 1 5.25 7zm3 0h1.5a.25.25 0 0 1 .25.25v1.5a.25.25 0 0 1-.25.25h-1.5A.25.25 0 0 1 8 8.75v-1.5A.25.25 0 0 1 8.25 7zm3 0h1.5a.25.25 0 0 1 .25.25v1.5a.25.25 0 0 1-.25.25h-1.5a.25.25 0 0 1-.25-.25v-1.5a.25.25 0 0 1 .25-.25zm3 0h1.5a.25.25 0 0 1 .25.25v1.5a.25.25 0 0 1-.25.25h-1.5a.25.25 0 0 1-.25-.25v-1.5a.25.25 0 0 1 .25-.25zm-9 3h1.5a.25.25 0 0 1 .25.25v1.5a.25.25 0 0 1-.25.25h-1.5a.25.25 0 0 1-.25-.25v-1.5a.25.25 0 0 1 .25-.25zm3 0h1.5a.25.25 0 0 1 .25.25v1.5a.25.25 0 0 1-.25.25h-1.5a.25.25 0 0 1-.25-.25v-1.5a.25.25 0 0 1 .25-.25zm3 0h1.5c.139 0 .25.111.25.25v1.5c0 .139-.111.25-.25.25h-1.5a.249.249 0 0 1-.25-.25v-1.5c0-.139.111-.25.25-.25zm3 0h1.5c.139 0 .25.111.25.25v1.5c0 .139-.111.25-.25.25h-1.5a.249.249 0 0 1-.25-.25v-1.5c0-.139.111-.25.25-.25zm-7 3h6.5c.139 0 .25.111.25.25v1.5c0 .139-.111.25-.25.25h-6.5a.25.25 0 0 1-.25-.25v-1.5a.25.25 0 0 1 .25-.25z"/></svg>
